X:20
T:Steffaleken
R:rorospols
Z:2001 Brian Wilson <baab@mediaone.net>
M:3/4
L:1/8
K:D
|: "D"d2 dc A>e | "D"f2 fd e>f | "A"g/e/g f/d/f e>c | "D"d/e/f dc "A"A>A
|  "D"d2 dc A>e | "D"f2 fd e>f | "A"g/e/g f/d/f e>c | "D"d/e/f "D"d4 :|
|: "D"a2 af "A"g>e | "D"f2 fd e>f | "G"g/e/g "D"f/d/f "A"e>c | "D"d/e/f dc "A"A>A
|  "A"a2 af g>e | "D"f2 fd e>f | "G"g/e/g "D"f/d/f "A"e>c | "D"d/e/f "D"d4 :|
